src/assets/icons/shapes,fancy,outline-star8.svg

<svg width="48" height="48" viewBox="0 0 48 48" fill="none" xmlns="http://www.w3.org/2000/svg">
<path d="M24.4646 6.23062L26.5107 11.3789C26.5193 11.4006 26.528 11.4224 26.5367 11.4443C26.6922 11.8361 26.8597 12.258 27.049 12.5938C27.2703 12.9863 27.6274 13.4608 28.2574 13.7218C28.8874 13.9827 29.4754 13.8997 29.9094 13.7786C30.2808 13.675 30.6975 13.4951 31.0845 13.3281C31.1062 13.3187 31.1277 13.3095 31.1491 13.3002L36.2363 11.1066C36.6911 10.9105 37.0656 10.7498 37.3785 10.6215C37.2502 10.9344 37.0895 11.3089 36.8934 11.7637L34.6998 16.8509C34.6905 16.8723 34.6812 16.8939 34.6719 16.9155C34.5048 17.3025 34.325 17.7192 34.2214 18.0906C34.1003 18.5246 34.0173 19.1126 34.2782 19.7426C34.5392 20.3726 35.0137 20.7297 35.4062 20.951C35.742 21.1403 36.1639 21.3078 36.5557 21.4633C36.5776 21.472 36.5994 21.4807 36.6211 21.4893L41.7694 23.5354C42.2296 23.7183 42.6081 23.8694 42.92 24C42.6081 24.1306 42.2296 24.2817 41.7694 24.4646L36.6211 26.5107C36.5994 26.5193 36.5776 26.528 36.5557 26.5367C36.1639 26.6922 35.742 26.8597 35.4062 27.049C35.0137 27.2703 34.5392 27.6274 34.2782 28.2574C34.0173 28.8874 34.1003 29.4754 34.2214 29.9094C34.325 30.2808 34.5049 30.6975 34.6719 31.0845C34.6813 31.1062 34.6905 31.1277 34.6998 31.1491L36.8934 36.2363C37.0895 36.6911 37.2502 37.0656 37.3785 37.3785C37.0656 37.2502 36.6911 37.0895 36.2363 36.8934L31.1491 34.6998C31.1277 34.6905 31.1061 34.6812 31.0845 34.6719C30.6975 34.5048 30.2808 34.325 29.9094 34.2214C29.4754 34.1003 28.8874 34.0173 28.2574 34.2782C27.6274 34.5392 27.2703 35.0137 27.049 35.4062C26.8597 35.742 26.6922 36.1639 26.5367 36.5557C26.528 36.5776 26.5193 36.5994 26.5107 36.6211L24.4646 41.7694C24.2817 42.2296 24.1306 42.6081 24 42.92C23.8694 42.6081 23.7183 42.2296 23.5354 41.7694L21.4893 36.6211C21.4807 36.5994 21.472 36.5776 21.4633 36.5557C21.3078 36.1639 21.1403 35.742 20.951 35.4062C20.7297 35.0137 20.3726 34.5392 19.7426 34.2782C19.1126 34.0173 18.5246 34.1003 18.0906 34.2214C17.7192 34.325 17.3025 34.5049 16.9155 34.6719C16.8938 34.6813 16.8723 34.6905 16.8509 34.6998L11.7637 36.8934C11.3089 37.0895 10.9344 37.2502 10.6215 37.3785C10.7498 37.0656 10.9105 36.6911 11.1066 36.2363L13.3002 31.1491C13.3095 31.1277 13.3188 31.1061 13.3281 31.0845C13.4952 30.6975 13.675 30.2808 13.7786 29.9094C13.8997 29.4754 13.9827 28.8874 13.7218 28.2574C13.4608 27.6274 12.9863 27.2703 12.5938 27.049C12.258 26.8597 11.8361 26.6922 11.4443 26.5367C11.4224 26.528 11.4006 26.5193 11.3789 26.5107L6.23062 24.4646C5.77037 24.2817 5.39191 24.1306 5.07997 24C5.39191 23.8694 5.77037 23.7183 6.23062 23.5354L11.3789 21.4893C11.4006 21.4807 11.4224 21.472 11.4443 21.4633C11.8361 21.3078 12.258 21.1403 12.5938 20.951C12.9863 20.7297 13.4608 20.3726 13.7218 19.7426C13.9827 19.1126 13.8997 18.5246 13.7786 18.0906C13.675 17.7192 13.4952 17.3025 13.3281 16.9155C13.3187 16.8938 13.3095 16.8723 13.3002 16.8509L11.1066 11.7637C10.9105 11.3089 10.7498 10.9344 10.6215 10.6215C10.9344 10.7498 11.3089 10.9105 11.7637 11.1066L16.8509 13.3002C16.8723 13.3095 16.8939 13.3188 16.9155 13.3281C17.3025 13.4952 17.7192 13.675 18.0906 13.7786C18.5246 13.8997 19.1126 13.9827 19.7426 13.7218C20.3726 13.4608 20.7297 12.9863 20.951 12.5938C21.1403 12.258 21.3078 11.8361 21.4633 11.4443C21.472 11.4224 21.4807 11.4006 21.4893 11.3789L23.5354 6.23062C23.7183 5.77037 23.8694 5.39191 24 5.07997C24.1306 5.39191 24.2817 5.77037 24.4646 6.23062Z" stroke="black" stroke-width="3"/>
</svg>

<svg xmlns="http://www.w3.org/2000/svg" width="48" height="48" fill="none" viewBox="0 0 48 48">
  <path stroke="#000" stroke-width="3" d="M24.465 6.23l2.046 5.149.026.065c.155.392.323.814.512 1.15.221.392.578.867 1.208 1.128.63.26 1.218.178 1.652.057.372-.104.789-.284 1.175-.45l.065-.029 5.087-2.193c.455-.196.83-.357 1.143-.486-.129.313-.29.688-.486 1.143L34.7 16.85l-.028.065c-.167.386-.347.803-.45 1.175-.122.434-.205 1.022.056 1.652.261.63.736.987 1.128 1.208.336.19.758.357 1.15.512l.065.026 5.148 2.046c.46.183.84.334 1.151.465-.312.13-.69.282-1.15.465L36.62 26.51l-.065.026c-.392.155-.814.323-1.15.512-.392.221-.867.578-1.128 1.208-.26.63-.178 1.218-.057 1.652.104.372.284.789.45 1.175l.029.065 2.193 5.087c.197.455.357.83.486 1.143a73.356 73.356 0 01-1.143-.486L31.15 34.7l-.065-.028c-.386-.167-.803-.347-1.175-.45-.434-.122-1.022-.205-1.652.056-.63.261-.987.736-1.208 1.128-.19.336-.357.758-.512 1.15l-.026.065-2.046 5.148c-.183.46-.334.84-.465 1.151-.13-.312-.282-.69-.465-1.15L21.49 36.62l-.026-.065c-.155-.392-.323-.814-.512-1.15-.221-.392-.578-.867-1.208-1.128-.63-.26-1.218-.178-1.652-.057-.372.104-.789.284-1.175.45l-.065.029-5.087 2.193c-.455.197-.83.357-1.143.486.129-.313.29-.688.486-1.143L13.3 31.15l.028-.065c.167-.386.347-.803.45-1.175.122-.434.205-1.022-.056-1.652-.261-.63-.736-.987-1.128-1.208-.336-.19-.758-.357-1.15-.512l-.065-.026-5.148-2.046c-.46-.183-.84-.334-1.151-.465.312-.13.69-.282 1.15-.465l5.149-2.046.065-.026c.392-.155.814-.323 1.15-.512.392-.221.867-.578 1.128-1.208.26-.63.178-1.218.057-1.652-.104-.372-.284-.789-.45-1.175l-.029-.065-2.193-5.087c-.196-.455-.357-.83-.486-1.143.313.129.688.29 1.143.486L16.85 13.3l.065.028c.386.167.803.347 1.175.45.434.122 1.022.205 1.652-.056.63-.261.987-.736 1.208-1.128.19-.336.357-.758.512-1.15l.026-.065 2.046-5.148c.183-.46.334-.84.465-1.151.13.312.282.69.465 1.15z"/>
</svg>
